src/svg/notes-outline.svg

<svg version="1.2" baseProfile="tiny" xmlns="http://www.w3.org/2000/svg" width="24" height="24" viewBox="0 0 24 24"><path d="M18.324 4.367c-.368-.324-.84-.5-1.324-.5l-.248.016-9 1.25c-1.001.125-1.752.975-1.752 1.984v6.111c-1.746.551-3 2.034-3 3.772 0 2.205 2.019 4 4.5 4 1.695 0 3.169-.842 3.937-2.078.803.667 1.879 1.078 3.063 1.078 2.481 0 4.5-1.795 4.5-4v-10.133c0-.574-.246-1.119-.676-1.5zm-7.324 11.633v-4.256l3-.45v1.737c-1.693.208-3 1.46-3 2.969zm6 0c0 1.104-1.119 2-2.5 2s-2.5-.896-2.5-2 1.119-2 2.5-2c.172 0 .338.014.5.041v-3.908l-5 .75v6.117c0 1.104-1.119 2-2.5 2s-2.5-.896-2.5-2 1.119-2 2.5-2c.172 0 .338.014.5.041v-7.924l9-1.25v10.133z"/></svg>

<?xml version="1.0" encoding="iso-8859-1"?>
<!-- Generator: Adobe Illustrator 16.2.1, SVG Export Plug-In . SVG Version: 6.00 Build 0)  -->
<svg version="1.2" baseProfile="tiny" xmlns="http://www.w3.org/2000/svg" xmlns:xlink="http://www.w3.org/1999/xlink" x="0px"
	 y="0px" width="24px" height="24px" viewBox="0 0 24 24" xml:space="preserve">
<g id="Layer_1">
	<path d="M18.324,4.367c-0.368-0.324-0.84-0.5-1.324-0.5c-0.082,0-0.165,0.005-0.248,0.016l-9,1.25C6.751,5.258,6,6.108,6,7.117
		v6.111C4.254,13.779,3,15.262,3,17c0,2.205,2.019,4,4.5,4c1.695,0,3.169-0.842,3.937-2.078C12.24,19.589,13.316,20,14.5,20
		c2.481,0,4.5-1.795,4.5-4V5.867C19,5.293,18.754,4.748,18.324,4.367z M11,16v-4.256l3-0.45v1.737C12.307,13.239,11,14.491,11,16z
		 M17,16c0,1.104-1.119,2-2.5,2S12,17.104,12,16s1.119-2,2.5-2c0.172,0,0.338,0.014,0.5,0.041v-3.908l-5,0.75V17
		c0,1.104-1.119,2-2.5,2S5,18.104,5,17s1.119-2,2.5-2c0.172,0,0.338,0.014,0.5,0.041V7.117l9-1.25V16z"/>
</g>
<g id="nyt_x5F_exporter_x5F_info" display="none">
</g>
</svg>
